X: 030952
T: Connemara Stockings
S: "Music from Ireland 2" (Bulmer & Sharpley)
Z: B.Black
R: reel
M: 4/4
L: 1/8
K: G
g2 fg edBA|GABG AGFD|GABd eaag|fdef gdef :|
gbef gb e2|fade fa d2|gbef gbeg|fedf e2 ed|
ebba b2 ag|faag a2 gf|g2 ge f2 fd|edef gaba||
